src/lib/packages/icons/src/assets/line/thumbtack-vertical.svg

<svg width="24" height="24" viewBox="0 0 24 24" fill="none" xmlns="http://www.w3.org/2000/svg">
<path d="M17.409 10.3479C17.04 9.9789 16.885 9.45289 16.994 8.94189L17.845 4.97095C18.012 4.19495 17.883 3.49495 17.484 3.00195C17.207 2.65895 16.662 2.25 15.645 2.25H8.35599C7.33799 2.25 6.794 2.65895 6.517 3.00195C6.118 3.49595 5.99001 4.19495 6.15601 4.97095L7.00699 8.94189C7.11599 9.45289 6.961 9.9789 6.591 10.3479C5.082 11.8569 4.25 13.865 4.25 15.999C4.25 16.413 4.586 16.749 5 16.749H11.25V20.999C11.25 21.413 11.586 21.749 12 21.749C12.414 21.749 12.75 21.413 12.75 20.999V16.749H19C19.414 16.749 19.75 16.413 19.75 15.999C19.75 13.865 18.918 11.8579 17.409 10.3479ZM5.79199 15.25C5.95799 13.8 6.604 12.4569 7.651 11.4089C8.382 10.6779 8.68899 9.63893 8.47299 8.62793L7.62201 4.65698C7.55501 4.34198 7.57701 4.07607 7.68301 3.94507C7.82101 3.77507 8.16299 3.75 8.35599 3.75H15.645C15.837 3.75 16.18 3.77507 16.318 3.94507C16.423 4.07607 16.446 4.34198 16.379 4.65698L15.528 8.62793C15.312 9.63893 15.619 10.6779 16.35 11.4089C17.397 12.4569 18.043 13.8 18.209 15.25H5.79199Z" fill="currentColor"/>
</svg>

<svg xmlns="http://www.w3.org/2000/svg" width="24" height="24" fill="none"><path fill="currentColor" d="M17.409 10.348a1.53 1.53 0 0 1-.415-1.406l.851-3.971c.167-.776.038-1.476-.361-1.97-.277-.342-.822-.751-1.839-.751H8.356c-1.018 0-1.562.409-1.839.752-.399.494-.527 1.193-.361 1.969l.851 3.97a1.528 1.528 0 0 1-.416 1.407 7.942 7.942 0 0 0-2.341 5.651c0 .414.336.75.75.75h6.25v4.25a.75.75 0 0 0 1.5 0v-4.25H19a.75.75 0 0 0 .75-.75 7.944 7.944 0 0 0-2.341-5.651ZM5.792 15.25a6.451 6.451 0 0 1 1.859-3.841 3.024 3.024 0 0 0 .822-2.781l-.851-3.971c-.067-.315-.045-.58.061-.712.138-.17.48-.195.673-.195h7.289c.192 0 .535.025.673.195.105.131.128.397.061.712l-.851 3.97a3.024 3.024 0 0 0 .822 2.782 6.451 6.451 0 0 1 1.859 3.841H5.792Z"/></svg>
